blockchains/ethereum/assets/0x45804880De22913dAFE09f4980848ECE6EcbAf78/logo.svg

<svg fill="none" height="250" viewBox="0 0 250 250" width="250" xmlns="http://www.w3.org/2000/svg" xmlns:xlink="http://www.w3.org/1999/xlink"><clipPath id="a"><path d="m0 0h250v250h-250z"/></clipPath><g clip-path="url(#a)"><path d="m69.4636 30.6996c4.7583-5.4182 9.1345-10.0028 13.3023-13.8928-70.3667-2.2576-49.8749 48.6246-72.93689 100.2712-26.39621 59.53 3.12589 82.21 47.09639 89.295-6.1404-7.317-11.151-15.512-14.8652-24.312-28.376-35.878-16.8797-101.2781 27.4034-151.3614z" fill="#efe812"/><path d="m238.782 94.125c-8.31 21.739-20.332 41.87-35.531 59.496-12.185 14.808-26.78 27.454-43.172 37.406-19.037 12.063-41.162 18.348-63.6981 18.095-13.1572.118-26.3032-.799-39.3164-2.744 7.225 8.631 16.1824 15.648 26.292 20.596 63.6285 30.773 67.6225-26.361 134.9335-55.362 37.788-16.289 37.927-48.104 20.457-77.487" fill="#ede70a"/><path d="m160.079 34.729c9.212 1.6123 18.087 4.7587 26.257 9.3081 21.404 12.0343 39.439 29.2567 52.446 50.0834 11.461-32.3007 6.112-57.6549-18.929-62.2395-27.577-5.0361-49.111-6.6685-69.811-21.117-25.494-17.71326-47.861-11.94777-67.2412 6.0781l4.2025.1736c26.8827 1.5977 52.5837 6.9464 72.9367 17.6438" fill="#ede70a"/><path d="m69.4639 30.7061c-44.2832 50.0834-55.7794 115.4839-27.2646 151.3619-6.5963-15.575-9.475-32.471-8.4079-49.351 1.067-16.88 6.0505-33.2791 14.5555-47.8987 23.9997-40.0111 72.1731-57.377 111.7321-50.0833-20.492-10.8363-46.193-16.0461-72.9366-17.6438l-4.2026-.2084c-4.3067 3.9594-8.683 8.4051-13.4759 13.8233z" fill="#dec21c"/><path d="m186.336 43.9731c-8.174-4.5253-17.05-7.6481-26.257-9.2387 26.952 14.1706 44.839 38.205 44.839 76.2016-.156 16.04-4.345 31.782-12.181 45.778-7.835 13.996-19.066 25.796-32.658 34.314 16.4-9.942 30.997-22.589 43.172-37.406 15.199-17.626 27.221-37.757 35.53-59.4961-12.998-20.8522-31.033-38.0991-52.445-50.1528z" fill="#e5cb22"/><path d="m160.079 34.7345c-39.559-7.2937-87.7325 10.0722-111.7322 49.9097-8.5406 14.6384-13.544 31.0698-14.6113 47.9838s1.831 33.843 8.4638 49.439c3.701 8.807 8.7128 17.004 14.8652 24.312 13.0132 1.945 26.1593 2.862 39.3165 2.744 22.536.253 44.661-6.032 63.698-18.095 13.594-8.515 24.827-20.315 32.663-34.311 7.836-13.997 12.023-29.741 12.176-45.781 0-37.9965-17.887-62.0309-44.839-76.2015zm-4.445 138.2325c-14.631 9.398-32.388 12.62-49.388 8.963-17.0006-3.658-31.8609-13.898-41.3321-28.482-19.6582-30.321-9.9333-69.4637 19.554-90.3028 32.9951-23.4441 75.2991-14.2054 90.7201 19.5193 15.038 32.8565 10.905 70.8185-19.554 90.3025z" fill="#cca727"/></g></svg>

<svg width="250" height="250" viewBox="0 0 250 250" fill="none" xmlns="http://www.w3.org/2000/svg">
<g clip-path="url(#clip0_48_13060)">
<path d="M69.4636 30.6996C74.2219 25.2814 78.5981 20.6968 82.7659 16.8068C12.3992 14.5492 32.891 65.4314 9.82901 117.078C-16.5672 176.608 12.9549 199.288 56.9254 206.373C50.785 199.056 45.7744 190.861 42.0602 182.061C13.6842 146.183 25.1805 80.7829 69.4636 30.6996Z" fill="#EFE812"/>
<path d="M238.782 94.125C230.472 115.864 218.45 135.995 203.251 153.621C191.066 168.429 176.471 181.075 160.079 191.027C141.042 203.09 118.917 209.375 96.3809 209.122C83.2237 209.24 70.0777 208.323 57.0645 206.378C64.2895 215.009 73.2469 222.026 83.3565 226.974C146.985 257.747 150.979 200.613 218.29 171.612C256.078 155.323 256.217 123.508 238.747 94.125" fill="#EDE70A"/>
<path d="M160.079 34.729C169.291 36.3413 178.166 39.4877 186.336 44.0371C207.74 56.0714 225.775 73.2938 238.782 94.1205C250.243 61.8198 244.894 36.4656 219.853 31.881C192.276 26.8449 170.742 25.2125 150.042 10.764C124.548 -6.94926 102.181 -1.18377 82.8008 16.8421L87.0033 17.0157C113.886 18.6134 139.587 23.9621 159.94 34.6595" fill="#EDE70A"/>
<path d="M69.4639 30.7061C25.1807 80.7895 13.6845 146.19 42.1993 182.068C35.603 166.493 32.7243 149.597 33.7914 132.717C34.8584 115.837 39.8419 99.4379 48.3469 84.8183C72.3466 44.8072 120.52 27.4413 160.079 34.735C139.587 23.8987 113.886 18.6889 87.1424 17.0912L82.9398 16.8828C78.6331 20.8422 74.2568 25.2879 69.4639 30.7061Z" fill="#DEC21C"/>
<path d="M186.336 43.9731C178.162 39.4478 169.286 36.325 160.079 34.7344C187.031 48.905 204.918 72.9394 204.918 110.936C204.762 126.976 200.573 142.718 192.737 156.714C184.902 170.71 173.671 182.51 160.079 191.028C176.479 181.086 191.076 168.439 203.251 153.622C218.45 135.996 230.472 115.865 238.781 94.1259C225.783 73.2737 207.748 56.0268 186.336 43.9731Z" fill="#E5CB22"/>
<path d="M160.079 34.7345C120.52 27.4408 72.3465 44.8067 48.3468 84.6442C39.8062 99.2826 34.8028 115.714 33.7355 132.628C32.6682 149.542 35.5665 166.471 42.1993 182.067C45.9003 190.874 50.9121 199.071 57.0645 206.379C70.0777 208.324 83.2238 209.241 96.381 209.123C118.917 209.376 141.042 203.091 160.079 191.028C173.673 182.513 184.906 170.713 192.742 156.717C200.578 142.72 204.765 126.976 204.918 110.936C204.918 72.9395 187.031 48.9051 160.079 34.7345ZM155.634 172.967C141.003 182.365 123.246 185.587 106.246 181.93C89.2454 178.272 74.3851 168.032 64.9139 153.448C45.2557 123.127 54.9806 83.9843 84.4679 63.1452C117.463 39.7011 159.767 48.9398 175.188 82.6645C190.226 115.521 186.093 153.483 155.634 172.967Z" fill="#CCA727"/>
</g>
<defs>
<clipPath id="clip0_48_13060">
<rect width="250" height="250" fill="white"/>
</clipPath>
</defs>
</svg>
